!!!COM: Haydn, Franz Joseph
!!!OTL: String Quartet in D Major
!!!OPS: Opus 50
!!!ONM: No. 6
!!!OMD: Allegro
!!!OMV: 1
!!!SCT: H III:49
!!!SCA: Thematisch-bibliographisches Werkevererzeichnis (A. van Hoboken)
!!!YOR: Trautwein Edition
!!!ENC: Frances Bennion
!!!CDT: 1732/3/31/-1809/5/31/
!!!CNT: Oesterreich
!!!YEC: Copyright (c) 1994, 2000 Center for Computer Assisted Research in the Humanities
!!!YEM: Rights to all derivative editions reserved.
!!!YEM: Refer to licensing agreement for further details.
!!!YEN: United States of America
**kern	**kern	**kern	**kern
*k[f#c#]	*k[f#c#]	*k[f#c#]	*k[f#c#]
*D:	*D:	*D:	*D:
*clefF4	*clefC3	*clefG	*clefG
*M4/4	*M4/4	*M4/4	*M4/4
1r	1r	1r	2.ee
.	.	.	16dd
.	.	.	16cc#
.	.	.	16b
.	.	.	16a
=2	=2	=2	=2
2.C#	1A	2.e	2.g
4D	.	4d	4f#
=3	=3	=3	=3
2GG	2G	2B	4.e
.	.	.	16g
.	.	.	16b
2AA	4F#	4A	4d
.	4E	4A	4c#
=4	=4	=4	=4
8DD	1F#	1A	1d
8D	.	.	.
8D	.	.	.
8D	.	.	.
8DD	.	.	.
8D	.	.	.
8DD	.	.	.
8D	.	.	.
=5	=5	=5	=5
8DD	1G	1c# 1e	8c#
8D	.	.	8a
8D	.	.	2a
8D	.	.	.
8DD	.	.	.
8D	.	.	.
8DD	.	.	16a
.	.	.	16f#
8D	.	.	16g
.	.	.	16e
=6	=6	=6	=6
8DD	1F#	1d 1A	1f#
8D	.	.	.
8D	.	.	.
8D	.	.	.
8DD	.	.	.
8D	.	.	.
8DD	.	.	.
8D	.	.	.
=7	=7	=7	=7
8DD	1G	1c# 1e	8e
8D	.	.	8b
8D	.	.	2b
8D	.	.	.
8DD	.	.	.
8D	.	.	.
8DD	.	.	16a
.	.	.	16f#
8D	.	.	16g
.	.	.	16e
=8	=8	=8	=8
4DD	4F#	4d	16f#
.	.	.	16d
.	.	.	16e
.	.	.	16f#
2.r	2.r	2.r	16g
.	.	.	16a
.	.	.	16b
.	.	.	16cc#
.	.	.	16dd
.	.	.	16ee
.	.	.	16ff#
.	.	.	16gg
.	.	.	16aa
.	.	.	16bb
.	.	.	16ccc#
.	.	.	16ddd
=9	=9	=9	=9
4G	4D	4.d	8bb
.	.	.	16aa
.	.	.	16bb
4F#	4D	.	4aa
.	.	8d	.
2r	2r	8d	2r
.	.	16c#	.
.	.	16d	.
.	.	8d	.
.	.	16c#	.
.	.	16d	.
=10	=10	=10	=10
4B	4D	4.d	8gg
.	.	.	16ff#
.	.	.	16gg
4A	4D	.	4ff#
.	.	8d	.
2r	2r	8d	2r
.	.	16c#	.
.	.	16d	.
.	.	8d	.
.	.	16c#	.
.	.	16d	.
=11	=11	=11	=11
[3..G	1r	8d	[1e
.	.	4d	.
.	.	4d	.
24G]	.	.	.
8A	.	4d	.
16B-	.	.	.
16c	.	.	.
16B-	.	[8d	.
16A	.	.	.
=12	=12	=12	=12
[3..G	1r	8d]	1e_
.	.	4d	.
.	.	4d	.
24G]	.	.	.
8A	.	4d	.
16B-	.	.	.
16c	.	.	.
16B-	.	[8d	.
16A	.	.	.
=13	=13	=13	=13
8G	1r	8d]	8e]
8A	.	4d	4e
16B-	.	.	.
16c	.	.	.
16B-	.	4d	4e
16A	.	.	.
8G	.	.	.
8A	.	4d	4e
16B-	.	.	.
16c	.	.	.
16B-	.	8d	8e
16A	.	.	.
=14	=14	=14	=14
2G	2B-	1d	16e
.	.	.	16f
.	.	.	16e
.	.	.	16f
.	.	.	16e
.	.	.	16f
.	.	.	16e
.	.	.	16f
2G#	4B	.	16e
.	.	.	16f
.	.	.	16e
.	.	.	16f
.	4G#	.	16e
.	.	.	16f
.	.	.	16e
.	.	.	16f
=15	=15	=15	=15
2A	2A	4.c#	4.e
.	.	8d	8f#
2AA	8C#	8f#	8a
.	8E	8e	8g
.	8F#	8d	8f#
.	8G	8c#	8e
=16	=16	=16	=16
2.D	4F#	4d	4d
.	2.r	2.r	2.r
16C#	.	.	.
16BB	.	.	.
16AA	.	.	.
16GG	.	.	.
=17	=17	=17	=17
4FF#	8r	2.aa	1r
.	8D	.	.
2.r	8F#	.	.
.	8A	.	.
.	8d	.	.
.	8f#	.	.
.	8g	16gg	.
.	.	16ff#	.
.	8g#	16ee	.
.	.	16dd	.
=18	=18	=18	=18
8r	4a	4cc#	2.eee
8CC#	.	.	.
8EE	2.r	2.r	.
8AA	.	.	.
8C#	.	.	.
8E	.	.	.
8A	.	.	16ddd
.	.	.	16ccc#
8c#	.	.	16bb
.	.	.	16aa
=19	=19	=19	=19
4d	1r	8r	[3..gg
.	.	8d	.
2.r	.	8f#	.
.	.	8a#	.
.	.	4b	.
.	.	.	24gg]
.	.	.	8ff#
.	.	4r	8ddd
.	.	.	8ff#
=20	=20	=20	=20
1r	1r	8r	8dd#
.	.	8c#	8ee
.	.	8e	8r
.	.	8g#	8ee
.	.	4a	8r
.	.	.	8ccc#
.	.	4r	8aa
.	.	.	8ff#
=21	=21	=21	=21
1r	1r	8r	8ee
.	.	8B	8dd#
.	.	8d	8r
.	.	8e	8dd
.	.	4g#	8r
.	.	.	16bb
.	.	.	16aa
.	.	4r	16gg#
.	.	.	16ff#
.	.	.	16ee
.	.	.	16dd
=22	=22	=22	=22
8r	8r	8r	[3..cc#
16A	16cc#	8e	.
16G#	16b	.	.
16F#	16a	8a	.
16E	16g#	.	.
16D	16f#	8cc#	.
16C#	16e	.	.
4D	4f#	4f#	.
.	.	.	24cc#]
.	.	.	4b
4D#	4F#	4b	.
.	.	.	8a
=23	=23	=23	=23
[1E	2G#	2e	16g#
.	.	.	16e
.	.	.	16g#
.	.	.	16b
.	.	.	16ee
.	.	.	16gg#
.	.	.	16bb
.	.	.	16gg#
.	2F#	2d#	16aa
.	.	.	16gg#
.	.	.	16ff#
.	.	.	16ee
.	.	.	16dd#
.	.	.	16cc#
.	.	.	16b
.	.	.	16a
=24	=24	=24	=24
1E]	2G#	2e	16g#
.	.	.	16e
.	.	.	16g#
.	.	.	16b
.	.	.	16ee
.	.	.	16gg#
.	.	.	16bb
.	.	.	16gg#
.	2F#	2d#	16aa
.	.	.	16gg#
.	.	.	16ff#
.	.	.	16ee
.	.	.	16dd#
.	.	.	16cc#
.	.	.	16b
.	.	.	16a
=25	=25	=25	=25
4E	4G#	4e	16g#
.	.	.	16e
.	.	.	16g#
.	.	.	16a
2.r	2.r	2.r	16b
.	.	.	16ee
.	.	.	16g#
.	.	.	16a
.	.	.	16b
.	.	.	16ee
.	.	.	16a
.	.	.	16b
.	.	.	16cc#
.	.	.	16e
.	.	.	16b
.	.	.	16cc#
=26	=26	=26	=26
8r	1r	1r	2.dd
8E	.	.	.
8D#	.	.	.
8E	.	.	.
4F	.	.	.
4r	.	.	8dd
.	.	.	16cc
.	.	.	16b
=27	=27	=27	=27
8r	2.d	1r	2a
8E	.	.	.
8D#	.	.	.
8E	.	.	.
4F	.	.	2g#
4r	8d	.	.
.	16c	.	.
.	16B	.	.
=28	=28	=28	=28
8r	2A	2.dd	1r
8EE	.	.	.
8DD#	.	.	.
8EE	.	.	.
4FF	2G#	.	.
4r	.	8dd	.
.	.	16cc	.
.	.	16b	.
=29	=29	=29	=29
8r	1d	2a	2.bb
8E	.	.	.
8D#	.	.	.
8E	.	.	.
4F	.	2g#	.
8E	.	.	8gg#
8D	.	.	16ff#
.	.	.	16ee
=30	=30	=30	=30
4C#	4e	4a	16aa
.	.	.	16ee
.	.	.	16aa
.	.	.	16ccc#
4r	4r	4r	8eee
.	.	.	8eee
4EE	16G#	16B	4eee
.	16B	16d	.
.	16d	16e	.
.	16e	16g#	.
4r	8g#	8b	8ddd
.	8g#	8b	16ccc#
.	.	.	16ddd
=31	=31	=31	=31
4AA	4a	4cc#	16ccc#
.	.	.	16ee
.	.	.	16aa
.	.	.	16ccc#
4r	4r	4r	8eee
.	.	.	8eee
4E	16G#	16B	4eee
.	16B	16d	.
.	16d	16e	.
.	16e	16g#	.
4r	8g#	8b	8ddd
.	8g#	8b	16ccc#
.	.	.	16ddd
=32	=32	=32	=32
4AA	8a	8cc#	8ccc#
.	8a	8cc#	8ccc#
2.r	8e#	8cc#	8bb
.	8e#	8cc#	16aa
.	.	.	16bb
.	8f#	8cc#	8aa
.	8f#	8cc#	8aa
.	8c#	8a	8gg
.	8c#	8a	16ff#
.	.	.	16gg
=33	=33	=33	=33
4r	8d	8a	8ff#
.	8d	8a	8ff#
8A#	8c#	8f#	8ee
8A#	8c#	8f#	16dd
.	.	.	16ee
8B	8f#	8f#	8dd
8B	8f#	8f#	8dd
8c#	8e	8f#	8cc#
8c#	8e	8f#	16b
.	.	.	16cc#
=34	=34	=34	=34
4d	4d	4f#	16cc#
.	.	.	16b
.	.	.	16a#
.	.	.	16b
2.r	2.r	2.r	16cc#
.	.	.	16b
.	.	.	16dd
.	.	.	16cc#
.	.	.	16ee
.	.	.	16dd
.	.	.	16ff#
.	.	.	16ee
.	.	.	16gg
.	.	.	16ff#
.	.	.	16ee
.	.	.	16dd
=35	=35	=35	=35
4d	4d	4f#	16cc#
.	.	.	16b
.	.	.	16a#
.	.	.	16b
2.r	2.r	2.r	16cc#
.	.	.	16b
.	.	.	16dd
.	.	.	16cc#
.	.	.	16ee
.	.	.	16dd
.	.	.	16ff#
.	.	.	16ee
.	.	.	16gg
.	.	.	16ff#
.	.	.	16ee
.	.	.	16dd
=36	=36	=36	=36
4D	4d	4f#	16cc#
.	.	.	16b
.	.	.	16a#
.	.	.	16b
2.r	2.r	2.r	8ff#
.	.	.	16ee
.	.	.	16dd
.	.	.	8dd
.	.	.	16cc#
.	.	.	16b
.	.	.	8dd
.	.	.	16cc#
.	.	.	16b
=37	=37	=37	=37
8E	16c#	16e	2a
.	16d	16f#	.
8E	16c#	16e	.
.	16d	16f#	.
8E	8c#	8e	.
8E	8c#	8a	.
8E	8d	8g#	2b
8E	4G#	4d	.
8E	.	.	.
8E	8G#	8d	.
=38	=38	=38	=38
1F	1A	1c	1a
=39	=39	=39	=39
1C	1G	1e	2.b-
.	.	.	16a
.	.	.	16g
.	.	.	16f
.	.	.	16e
=40	=40	=40	=40
4AA	4F	4c	4cc
4r	4r	4r	16b-
.	.	.	16a
.	.	.	16g
.	.	.	16f
4C	4E	4g 4b-	4b-
4r	4r	4r	16a
.	.	.	16g
.	.	.	16f
.	.	.	16e
=41	=41	=41	=41
4FF	4F	4a 4f	4cc
4r	4r	4r	16b-
.	.	.	16a
.	.	.	16g
.	.	.	16f
4FF	4F	4aa 4cc 4f	4aa
4r	4r	4r	8ff
.	.	.	16ee
.	.	.	16ff
=42	=42	=42	=42
4FF	4F	4f 4aa 4cc	4ccc
4r	4r	4r	16bb
.	.	.	16ccc
.	.	.	16ddd
.	.	.	16ccc
4FF	4f 4a	4f 4aa 4cc	4fff
4FF	4a 4e#	4aa 4cc 4f	4fff
=43	=43	=43	=43
4FF	4a 4f	4aa 4f 4cc	2fff
4r	4r	4r	.
4DD#	4D#	4d#	4d#
4DD#	4D#	4d#	4d#
=44	=44	=44	=44
1DD#	4D#	4d#	[2d#
.	4r	4r	.
.	4A	4c	2d#]
.	4A	4c	.
=45	=45	=45	=45
[1EE	[1A	[1c#	16e
.	.	.	16g#
.	.	.	16a
.	.	.	16g#
.	.	.	16a
.	.	.	16b#
.	.	.	16cc#
.	.	.	16cc
.	.	.	16cc#
.	.	.	16dd#
.	.	.	16ee
.	.	.	16dd#
.	.	.	16ee
.	.	.	16gg#
.	.	.	16aa
.	.	.	16gg#
=46	=46	=46	=46
1EE]	1A]	1c#]	16aa
.	.	.	16bb#
.	.	.	16ccc#
.	.	.	16bb#
.	.	.	16ccc#
.	.	.	16ddd#
.	.	.	16eee
.	.	.	16ddd#
.	.	.	16eee
.	.	.	16ddd#
.	.	.	16eee
.	.	.	16ddd#
.	.	.	8.eee
.	.	.	16aa
=47	=47	=47	=47
8EE	8G#	8d	1bb
8EE	4d	4g#	.
8EE	.	.	.
8EE	4d	4g#	.
8EE	.	.	.
8EE	4d	4g#	.
8EE	.	.	.
8EE	8d	8g#	.
=48	=48	=48	=48
4AA	4c#	4a	[1aa
4A	8r	8r	.
.	8f#	8aa	.
2r	8e#	8gg#	.
.	8f#	8aa	.
.	8c#	8ee	.
.	8e	8gg	.
=49	=49	=49	=49
4D	8c#	8ee#	4.aa]
.	8d	8ff#	.
4DD	2r	8r	.
.	.	8ff#	8ddd
4r	.	8ee#	8ccc#
.	.	8ff#	8ddd
4EE	4e	8dd	8bb
.	.	8b	8gg#
=50	=50	=50	=50
4AA	4e	8dd	8bb
.	.	8cc#	8aa
4A	8r	8r	2aa
.	8f#	8a	.
2r	8e#	8g#	.
.	8f#	8a	.
.	8c#	8e	[4aa
.	8e	8g	.
=51	=51	=51	=51
4D	8c#	8e#	4.aa]
.	8d	8f#	.
4DD	2r	8r	.
.	.	8f#	8dd
4r	.	8e#	8cc#
.	.	8f#	8dd
4EE	4e	8d	8b
.	.	8B	8g#
=52	=52	=52	=52
4AA	4e	4c#	8a
.	.	.	16g#
.	.	.	16r
2r	2r	2r	8b
.	.	.	16a
.	.	.	16r
.	.	.	8cc#
.	.	.	16b
.	.	.	16r
4EE	8.G#	4d	12dd
.	.	.	12b
.	.	.	12g#
.	16B	.	.
=53	=53	=53	=53
4AA	4A	4c#	8a
.	.	.	16g#
.	.	.	16r
2r	2r	2r	8b
.	.	.	16a
.	.	.	16r
.	.	.	8cc#
.	.	.	16b
.	.	.	16r
4EE	8.G#	4d	12dd
.	.	.	12b
.	.	.	12g#
.	16B	.	.
=54	=54	=54	=54
4AA	4A	4c#	8a
.	.	.	16g#
.	.	.	16r
2.r	2.r	2.r	8b
.	.	.	16a
.	.	.	16r
.	.	.	8cc#
.	.	.	16b
.	.	.	16r
.	.	.	8dd
.	.	.	16cc#
.	.	.	16r
=55	=55	=55	=55
1r	1r	1r	2.ee
.	.	.	16dd
.	.	.	16cc#
.	.	.	16b
.	.	.	16a
=56	=56	=56	=56
2.AA#	2.c#	2.e	2.g
4BB	4d	4d	4f#
=57	=57	=57	=57
2EE	4e	4.c#	4.e
.	2.r	.	.
.	.	16d	16f#
.	.	16c#	16e
2FF#	.	4B	4d
.	.	4A#	4c#
=58	=58	=58	=58
8GG	2.dd	4B	1B
8GG	.	.	.
8GG	.	2.r	.
8GG	.	.	.
8GG	.	.	.
8GG	.	.	.
8GG	16cc	.	.
.	16b	.	.
8GG	16a	.	.
.	16g	.	.
=59	=59	=59	=59
8D	2g	2.aa	1c
8D	.	.	.
8D	.	.	.
8D	.	.	.
8D	2f#	.	.
8D	.	.	.
8D	.	16gg	.
.	.	16ff#	.
8D	.	16ee	.
.	.	16dd	.
=60	=60	=60	=60
2G	1r	2cc	2.dd
2F	.	2b	.
.	.	.	8dd
.	.	.	16cc
.	.	.	16b
=61	=61	=61	=61
2E	2d	2.bb	2a
2D	2e#	.	2g#
.	.	8bb	.
.	.	16aa	.
.	.	16gg#	.
=62	=62	=62	=62
1C#	8g#	2ff#	2.ddd
.	8g#	.	.
.	8f##	.	.
.	8g#	.	.
.	4b	4ee#	.
.	4r	4gg#	16ccc#
.	.	.	16bb
.	.	.	16aa
.	.	.	16gg#
=63	=63	=63	=63
2.C#	8r	2gg#	[1aa
.	8f#	.	.
.	8e#	.	.
.	8f#	.	.
.	4a	[2ff#	.
16BB	4r	.	.
16AA	.	.	.
16GG#	.	.	.
16FF#	.	.	.
=64	=64	=64	=64
2.D	1r	8ff#]	8aa]
.	.	8ff#	8aa
.	.	8ee#	8gg#
.	.	8ff#	8aa
.	.	8ee#	8gg#
.	.	8ff#	8aa
16C#	.	8gg#	8bb
16D	.	.	.
16E	.	8ff#	8aa
16D	.	.	.
=65	=65	=65	=65
[3..B	1r	8ff#	[1gg#
.	.	4ff#	.
.	.	4ff#	.
24B]	.	.	.
8c#	.	4ff#	.
16d	.	.	.
16e	.	.	.
16d	.	[8ff#	.
16c#	.	.	.
=66	=66	=66	=66
[3..B	[2dd	8ff#]	1gg#_
.	.	4ff#	.
.	.	4ff#	.
.	8dd]	.	.
24B]	.	.	.
8c#	8cc#	4ff#	.
16d	16b	.	.
16e	16a#	.	.
16d	16b	[8ff#	.
16c#	16cc#	.	.
=67	=67	=67	=67
8B	8dd	8ff#]	1gg#]
8c#	8cc#	4ff#	.
16d	16b	.	.
16e	16a#	.	.
16d	16b	4ff#	.
16c#	16cc#	.	.
8B	8dd	.	.
8c#	8cc#	4ff#	.
16d	16b	.	.
16e	16a#	.	.
16d	16b	8ff#	.
16c#	16cc#	.	.
=68	=68	=68	=68
2B	2dd	1ff#	4..gg#
.	.	.	16aa
2B#	4dd#	.	16gg#
.	.	.	16aa
.	.	.	16gg#
.	.	.	16aa
.	4b#	.	16gg#
.	.	.	16aa
.	.	.	16gg#
.	.	.	16aa
=69	=69	=69	=69
8c#	4cc#	[2ee#	[3..gg#
8c#	.	.	.
8c#	2.r	.	.
8c#	.	.	.
8c#	.	8ee#]	.
.	.	.	24gg#]
8c#	.	8ff#	8aa
8c#	.	16gg#	16bb
.	.	16aa	16ccc#
8c#	.	16gg#	16bb
.	.	16ff#	16aa
=70	=70	=70	=70
8c#	[2b	[2ee#	[3..gg#
8c#	.	.	.
8c#	.	.	.
8c#	.	.	.
8c#	8b]	8ee#]	.
.	.	.	24gg#]
8c#	8a	8ff#	8aa
8c#	16g#	16gg#	16bb
.	16f#	16aa	16ccc#
8c#	16g#	16gg#	16bb
.	16a	16ff#	16aa
=71	=71	=71	=71
[1c#	4.b	4.ee#	4.gg#
.	8b#	8ff#	8aa
.	8cc#	8ee#	8gg#
.	8b#	8ff#	8aa
.	8cc#	8ee#	8gg#
.	8b#	8ff#	8aa
=72	=72	=72	=72
4c#]	4cc#	4ee#	4gg#
2.r	2.r	2.r	2.r
=73	=73	=73	=73
2F#	2.cc#	1r	16aa
.	.	.	16ff#
.	.	.	16ee#
.	.	.	16ff#
.	.	.	16ff#
.	.	.	16cc#
.	.	.	16b
.	.	.	16cc#
2r	.	.	16a
.	.	.	16b
.	.	.	16g#
.	.	.	16a
.	8a	.	16f#
.	.	.	16cc#
.	16g#	.	16ff#
.	16f#	.	16aa
=74	=74	=74	=74
2C#	1e#	2.dd	16bb
.	.	.	16gg#
.	.	.	16ff#
.	.	.	16gg#
.	.	.	16gg#
.	.	.	16b
.	.	.	16a
.	.	.	16b
2r	.	.	16g#
.	.	.	16a
.	.	.	16f#
.	.	.	16g#
.	.	8b	16e#
.	.	.	16cc#
.	.	16a	16gg#
.	.	16g#	16bb
=75	=75	=75	=75
1F#	2.cc#	2a	16aa
.	.	.	16ff#
.	.	.	16ee#
.	.	.	16ff#
.	.	.	16ff#
.	.	.	16cc#
.	.	.	16b
.	.	.	16cc#
.	.	2r	16a
.	.	.	16b
.	.	.	16g#
.	.	.	16a
.	8a	.	16f#
.	.	.	16cc#
.	16g#	.	16ff#
.	16f#	.	16aa
=76	=76	=76	=76
1C#	1e#	2.dd	16bb
.	.	.	16gg#
.	.	.	16ff#
.	.	.	16gg#
.	.	.	16gg#
.	.	.	16b
.	.	.	16a
.	.	.	16b
.	.	.	16g#
.	.	.	16a
.	.	.	16f#
.	.	.	16g#
.	.	8b	16e#
.	.	.	16cc#
.	.	16a	16gg#
.	.	16g#	16bb
=77	=77	=77	=77
2FF#	4cc#	2a	16aa
.	.	.	16ff#
.	.	.	16ee#
.	.	.	16ff#
.	8a	.	16ff#
.	.	.	16cc#
.	16g#	.	16b#
.	16f#	.	16cc#
2F#	4f#	4aa	16aa
.	.	.	16ff#
.	.	.	16ee#
.	.	.	16ff#
.	4a	8ff#	16ff#
.	.	.	16dd
.	.	16ee	16cc#
.	.	16dd	16dd
=78	=78	=78	=78
2E	2.g	2cc#	16gg
.	.	.	16aa
.	.	.	16ff#
.	.	.	16gg
.	.	.	16ee
.	.	.	16ff#
.	.	.	16dd
.	.	.	16ee
2A	.	2cc# 2e	16cc#
.	.	.	16dd
.	.	.	16b
.	.	.	16cc#
.	4e	.	16a
.	.	.	16b
.	.	.	16g
.	.	.	16a
=79	=79	=79	=79
2D	2a	2f# 2dd	16f#
.	.	.	16d
.	.	.	16e
.	.	.	16f#
.	.	.	16g
.	.	.	16a
.	.	.	16b
.	.	.	16cc#
2F#	[2d	2a	16dd
.	.	.	16ee
.	.	.	16ff#
.	.	.	16gg
.	.	.	16aa
.	.	.	16bb
.	.	.	16ccc#
.	.	.	16ddd
=80	=80	=80	=80
2.G	4d]	1b	8bb
.	.	.	16aa#
.	.	.	16bb
.	4d#	.	8gg
.	.	.	16ff#
.	.	.	16gg
.	4e	.	8ee
.	.	.	16dd#
.	.	.	16ee
4G#	4e	.	8dd
.	.	.	16cc#
.	.	.	16dd
=81	=81	=81	=81
4A	4e	4a	16cc#
.	.	.	16a
.	.	.	16b
.	.	.	16cc#
2.r	2.r	2.r	16dd
.	.	.	16ee
.	.	.	16ff#
.	.	.	16gg#
.	.	.	16aa
.	.	.	16gg#
.	.	.	16aa
.	.	.	16gg#
.	.	.	16aa
.	.	.	16gg#
.	.	.	16aa
.	.	.	16gg#
=82	=82	=82	=82
[3..c#	[2e	1r	[1aa
.	8e]	.	.
24c#]	.	.	.
8d	8f	.	.
16e	16g	.	.
16f	16a	.	.
16e	16g	.	.
16d	16f	.	.
=83	=83	=83	=83
[3..c#	[2e	[2gg	1aa]
.	8e]	8gg]	.
24c#]	.	.	.
8d	8f	8ff	.
16e	16g	16ee	.
16f	16a	16dd	.
16e	16g	16ee	.
16d	16f	16ff	.
=84	=84	=84	=84
8c#	8e	8gg	8aa
8d	8f	8ff	4aa
16e	16g	16ee	.
16f	16a	16dd	.
16e	16g	16ee	4aa
16d	16f	16ff	.
8c#	8e	8gg	.
8d	8f	8ff	4aa
16e	16g	8ee	.
16d	16f	.	.
16e	16g	8gg	8aa
16c#	16e	.	.
=85	=85	=85	=85
8c	1e-	[2ff#	[3..aa
8c	.	.	.
8c	.	.	.
8c	.	.	.
8c	.	8ff#]	.
.	.	.	24aa]
8c	.	8gg	8bb-
8c	.	16aa	16ccc
.	.	16bb-	16ddd
8c	.	16aa	16ccc
.	.	16gg	16bb-
=86	=86	=86	=86
[3..c	[2ee-	[2ff#	[3..aa
.	8ee-]	8ff#]	.
24c]	.	.	24aa]
8B-	8dd	8gg	8bb-
16A	16cc	16aa	16ccc
16G	16b-	16bb-	16ddd
16A	16cc	16aa	16ccc
16B-	16dd	16gg	16bb-
=87	=87	=87	=87
8c	8ee-	8ff#	8aa
8B-	8dd	8gg	8bb-
16A	16cc	16aa	16ccc
16G	16b-	16bb-	16ddd
16A	16cc	16aa	16ccc
16B-	16dd	16gg	16bb-
8c	8ee-	8ff#	8aa
8B-	8dd	8gg	8bb-
8A	8cc	16aa	16ccc
.	.	16gg	16bb-
8D	8cc	16aa	16ccc
.	.	16ff#	16aa
=88	=88	=88	=88
[3..B-	2.dd	4gg	2.gg
.	.	2.r	.
24B-]	.	.	.
8B-	.	.	.
8A	4b-	.	8gg
8G	.	.	16ff
.	.	.	16ee
=89	=89	=89	=89
[1A	2.g	8r	2dd
.	.	8a	.
.	.	8g#	.
.	.	8a	.
.	.	4b-	2cc#
.	8g	4r	.
.	16f	.	.
.	16e	.	.
=90	=90	=90	=90
1A_	2d	2.g	8r
.	.	.	8aa
.	.	.	8gg#
.	.	.	8aa
.	2c#	.	4bb-
.	.	8g	4r
.	.	16f	.
.	.	16e	.
=91	=91	=91	=91
1A]	2.g	2d	8r
.	.	.	8aa
.	.	.	8gg#
.	.	.	8aa
.	.	2c#	4bb-
.	8g	.	4gg
.	16f	.	.
.	16e	.	.
=92	=92	=92	=92
[1D	8a	2.cc	2gg
.	8d	.	.
.	8c#	.	.
.	8d	.	.
.	4e-	.	2ff#
.	4r	8cc	.
.	.	16b-	.
.	.	16a	.
=93	=93	=93	=93
1D]	8r	2g	2.ccc
.	8d	.	.
.	8c#	.	.
.	8d	.	.
.	4e-	2f#	.
.	4r	.	8ccc
.	.	.	16bb-
.	.	.	16aa
=94	=94	=94	=94
[1A [1D	8r	2.cc	2gg
.	8dd	.	.
.	8cc#	.	.
.	8dd	.	.
.	4ee-	.	2ff#
.	4r	8cc	.
.	.	16b-	.
.	.	16a	.
=95	=95	=95	=95
1A] 1D]	8r	2g	2.ccc
.	8d	.	.
.	8c#	.	.
.	8d	.	.
.	4e-	2f#	.
.	4r	.	8ccc
.	.	.	16bb-
.	.	.	16aa
=96	=96	=96	=96
8G	8d	[1dd	8bb-
8G	8d	.	8bb-
8A	8f#	.	8aa
8A	16e	.	16gg
.	16f#	.	16aa
8B-	8g	.	8gg
8B-	8g	.	8gg
8A	8c	.	8ff#
8A	8c	.	16ee
.	.	.	16ff#
=97	=97	=97	=97
8B-	2d	2.dd]	8gg
8B-	.	.	8gg
8A	.	.	8ff
16G	.	.	16ee
16A	.	.	16ff
8G	4b-	.	8ee
8G	.	.	8ee
8G#	4b	4f	8dd
8G#	.	.	16cc#
.	.	.	16dd
=98	=98	=98	=98
[1A	4a	4e	8cc#
.	.	.	16b
.	.	.	16a
.	4r	4r	16aa
.	.	.	16a
.	.	.	16aa
.	.	.	16a
.	2c#	2e	8cc#
.	.	.	16b
.	.	.	16a
.	.	.	16aa
.	.	.	16a
.	.	.	16aa
.	.	.	16a
=99	=99	=99	=99
1A_	2d	2f#	8b
.	.	.	16a
.	.	.	16b
.	.	.	16aa
.	.	.	16b
.	.	.	16aa
.	.	.	16b
.	2e	2g	8cc#
.	.	.	16b
.	.	.	16cc#
.	.	.	16aa
.	.	.	16cc#
.	.	.	16aa
.	.	.	16cc#
=100	=100	=100	=100
1A]	4f#	4a	8dd
.	.	.	16cc#
.	.	.	16dd
.	2.r	8cc#	8ee
.	.	16b	16dd
.	.	16cc#	16ee
.	.	8dd	8ff#
.	.	16cc#	16ee
.	.	16dd	16ff#
.	.	8ee	8gg
.	.	16dd	16ff#
.	.	16ee	16gg
=101	=101	=101	=101
[1AA	2r	8ff#	8aa
.	.	16ee	16gg
.	.	16ff#	16aa
.	.	8gg	8bb
.	.	16ff#	16aa
.	.	16gg	16bb
.	4g	8ee	8ccc#
.	.	16dd	16bb
.	.	16ee	16ccc#
.	4f#	8ff#	8ddd
.	.	16ee	16ccc#
.	.	16ff#	16ddd
=102	=102	=102	=102
1AA]	1c#	1gg	2.eee
.	.	.	16ddd
.	.	.	16ccc#
.	.	.	16bb
.	.	.	16aa
=103	=103	=103	=103
1r	1r	1r	2.gg
.	.	.	16ff#
.	.	.	16ee
.	.	.	16dd
.	.	.	16cc#
=104	=104	=104	=104
1r	1r	1r	2.ee
.	.	.	16dd
.	.	.	16cc#
.	.	.	16b
.	.	.	16a
=105	=105	=105	=105
2.C#	1A	2.e	2.g
4D	.	4d	4f#
=106	=106	=106	=106
2GG	2G	2B	4.e
.	.	.	16g
.	.	.	16b
2AA	4F#	4A	4d
.	4E	4A	4c#
=107	=107	=107	=107
8DD	1F#	1A	1d
8D	.	.	.
8D	.	.	.
8D	.	.	.
8DD	.	.	.
8D	.	.	.
8DD	.	.	.
8D	.	.	.
=108	=108	=108	=108
8DD	1G	1e 1c#	8c#
8D	.	.	8a
8D	.	.	2a
8D	.	.	.
8DD	.	.	.
8D	.	.	.
8DD	.	.	16a
.	.	.	16f#
8D	.	.	16g
.	.	.	16e
=109	=109	=109	=109
8DD	1F#	1A 1d	1f#
8D	.	.	.
8D	.	.	.
8D	.	.	.
8DD	.	.	.
8D	.	.	.
8DD	.	.	.
8D	.	.	.
=110	=110	=110	=110
8DD	1G	1c# 1e	8e
8D	.	.	8b
8D	.	.	2b
8D	.	.	.
8DD	.	.	.
8D	.	.	.
8DD	.	.	16a
.	.	.	16f#
8D	.	.	16g
.	.	.	16e
=111	=111	=111	=111
4DD	4F#	4d	16f#
.	.	.	16d
.	.	.	16e
.	.	.	16f#
2.r	2.r	2.r	16g
.	.	.	16a
.	.	.	16b
.	.	.	16cc#
.	.	.	16dd
.	.	.	16ee
.	.	.	16ff#
.	.	.	16gg
.	.	.	16aa
.	.	.	16bb
.	.	.	16ccc#
.	.	.	16ddd
=112	=112	=112	=112
4G	4D	4.d	8bb
.	.	.	16aa
.	.	.	16bb
4F#	4D	.	4aa
.	.	8d	.
2r	2r	8d	2r
.	.	16c#	.
.	.	16d	.
.	.	8d	.
.	.	16c#	.
.	.	16d	.
=113	=113	=113	=113
4B	4D	4.d	8gg
.	.	.	16ff#
.	.	.	16gg
4A	4D	.	4ff#
.	.	8d	.
2r	2r	8d	2r
.	.	16c#	.
.	.	16d	.
.	.	8d	.
.	.	16c#	.
.	.	16d	.
=114	=114	=114	=114
[3..G	1r	8d	[1e
.	.	4d	.
.	.	4d	.
24G]	.	.	.
8A	.	4d	.
16B-	.	.	.
16c	.	.	.
16B-	.	[8d	.
16A	.	.	.
=115	=115	=115	=115
[3..G	[2b-	8d]	1e_
.	.	4d	.
.	.	4d	.
.	8b-]	.	.
24G]	.	.	.
8A	8a	4d	.
16B-	16g	.	.
16c	16f#	.	.
16B-	16g	[8d	.
16A	16a	.	.
=116	=116	=116	=116
8G	8b-	8d]	8e]
8A	8a	4d	4e
16B-	16g	.	.
16c	16f#	.	.
16B-	16g	4d	4e
16A	16a	.	.
8G	8b-	.	.
8A	8a	4d	4e
16B-	16g	.	.
16c	16f#	.	.
16B-	16g	8d	8e
16A	16a	.	.
=117	=117	=117	=117
2G	2b-	1d	16e
.	.	.	16f
.	.	.	16e
.	.	.	16f
.	.	.	16e
.	.	.	16f
.	.	.	16e
.	.	.	16f
2G#	2b	.	16e
.	.	.	16f
.	.	.	16e
.	.	.	16f
.	.	.	16e
.	.	.	16f
.	.	.	16e
.	.	.	16f
=118	=118	=118	=118
8A	4a	4c#	16e
.	.	.	16A
8AA	.	.	16c#
.	.	.	16e
8AA	2e 2c#	2a	16a
.	.	.	16e
8AA	.	.	16a
.	.	.	16cc#
8AA	.	.	16ee
.	.	.	16a
8AA	.	.	16cc#
.	.	.	16ee
8AA	4e 4c#	4a	16aa
.	.	.	16ee
8AA	.	.	16cc#
.	.	.	16a
=119	=119	=119	=119
8AA	1d 1B	1g#	16g#
.	.	.	16e
8AA	.	.	16g#
.	.	.	16b
8AA	.	.	16dd
.	.	.	16b
8AA	.	.	16dd
.	.	.	16gg#
8AA	.	.	16bb
.	.	.	16aa
8AA	.	.	16gg#
.	.	.	16ff#
8AA	.	.	16ee
.	.	.	16dd
8AA	.	.	16cc#
.	.	.	16b
=120	=120	=120	=120
8AA	1e 1c#	2.g	16cc#
.	.	.	16a
8AA	.	.	16cc#
.	.	.	16ee
8AA	.	.	16aa
.	.	.	16ee
8AA	.	.	16aa
.	.	.	16ccc#
8AA	.	.	8eee
8AA	.	.	8ccc#
8AA	.	4e	8aa
8AA	.	.	8gg
=121	=121	=121	=121
4D	4f# 4A	4f#	16ff#
.	.	.	16d
.	.	.	16e
.	.	.	16f#
2.r	2.r	2.r	16g
.	.	.	16a
.	.	.	16b
.	.	.	16cc#
.	.	.	16dd
.	.	.	16ee
.	.	.	16ff#
.	.	.	16gg
.	.	.	16aa
.	.	.	16bb
.	.	.	16ccc#
.	.	.	16ddd
=122	=122	=122	=122
1AA	16A	16c#	1ccc#
.	16B	16d	.
.	16c#	16e	.
.	16d	16f#	.
.	16e	16g	.
.	16f#	16a	.
.	16g	16b	.
.	16f#	16a	.
.	16e	16g	.
.	16d	16f#	.
.	16c#	16e	.
.	16B	16d	.
.	16A	16c#	.
.	16G	16B	.
.	16F#	16A	.
.	16E	16g	.
=123	=123	=123	=123
4D	4D	4f#	16ddd
.	.	.	16d
.	.	.	16e
.	.	.	16f#
2r	2.r	2.r	16g
.	.	.	16a
.	.	.	16b
.	.	.	16cc#
.	.	.	16dd
.	.	.	16ee
.	.	.	16ff#
.	.	.	16gg
4F#	.	.	16aa
.	.	.	16bb
.	.	.	16ccc#
.	.	.	16ddd
=124	=124	=124	=124
8G	4r	2d	8bb
8G	.	.	16aa#
.	.	.	16bb
8F#	4f#	.	8aa
8F#	.	.	16gg#
.	.	.	16aa
8E	4a	4cc#	8gg
8E	.	.	16ff#
.	.	.	16gg
8D	8a	4dd	8ff#
8D	16g	.	16ee
.	16a	.	16ff#
=125	=125	=125	=125
4G	4b	4b	16ff#
.	.	.	16ee
.	.	.	16dd#
.	.	.	16ee
2.r	2.r	2.r	16ff#
.	.	.	16ee
.	.	.	16gg
.	.	.	16ff#
.	.	.	16aa
.	.	.	16gg
.	.	.	16bb
.	.	.	16aa
.	.	.	16ccc
.	.	.	16bb
.	.	.	16aa
.	.	.	16gg
=126	=126	=126	=126
4G	4g	4b	16ff#
.	.	.	16ee
.	.	.	16dd#
.	.	.	16ee
2.r	2.r	2.r	16ff#
.	.	.	16ee
.	.	.	16gg
.	.	.	16ff#
.	.	.	16aa
.	.	.	16gg
.	.	.	16bb
.	.	.	16aa
.	.	.	16ccc
.	.	.	16bb
.	.	.	16aa
.	.	.	16gg
=127	=127	=127	=127
4G	4g	4b	16ff#
.	.	.	16ee
.	.	.	16dd#
.	.	.	16ee
2.r	2.r	2.r	8bb
.	.	.	16aa
.	.	.	16gg
.	.	.	8gg
.	.	.	16ff#
.	.	.	16ee
.	.	.	8gg
.	.	.	16ff#
.	.	.	16ee
=128	=128	=128	=128
8A	16f#	16a	2dd
.	16g	16b	.
8A	16f#	16a	.
.	16g	16b	.
8A	8f#	8a	.
8A	8f#	8dd	.
8AA	8g	8cc#	2ee
8AA	4c#	4g	.
8AA	.	.	.
8AA	8c#	8g	.
=129	=129	=129	=129
1BB-	1d	1f	1dd
=130	=130	=130	=130
1FF	1c	1a	2.ee-
.	.	.	16dd
.	.	.	16cc
.	.	.	16b-
.	.	.	16a
=131	=131	=131	=131
4DD	4B-	4f	4ff
4r	4r	4r	16ee-
.	.	.	16dd
.	.	.	16cc
.	.	.	16b-
4FF	4A	4e- 4cc	4ee-
4r	4r	4r	16dd
.	.	.	16cc
.	.	.	16b-
.	.	.	16a
=132	=132	=132	=132
4BB-	4B-	4d 4b-	4ff
4r	4r	4r	16ee-
.	.	.	16dd
.	.	.	16cc
.	.	.	16b-
4BB-	4B-	4f 4dd	4bb-
4r	4r	4r	16aa
.	.	.	16bb-
.	.	.	16ccc
.	.	.	16bb-
=133	=133	=133	=133
4BB-	4B-	4dd 4f	4ddd
4r	4r	4r	16ccc#
.	.	.	16ddd
.	.	.	16eee-
.	.	.	16ddd
4BB-	4B-	4f 4dd	8fff
.	.	.	8ddd
4BB-	4B-	4dd 4f	8bb-
.	.	.	8ff
=134	=134	=134	=134
8BB-	8B-	8dd 8f	8dd
8B-	8b-	8b-	8b-
8F	8f	8f	8f
8D	8d	8d	8d
4BB-	4B-	4B-	4B-
4AA	4A	4A	4A
=135	=135	=135	=135
1GG#	2G#	2G#	1G#
.	4d	4f	.
.	4d	4f	.
=136	=136	=136	=136
[1AA	[1d	[1f#	16A
.	.	.	16c#
.	.	.	16d
.	.	.	16c#
.	.	.	16d
.	.	.	16e#
.	.	.	16f#
.	.	.	16e#
.	.	.	16f#
.	.	.	16g#
.	.	.	16a
.	.	.	16g#
.	.	.	16a
.	.	.	16cc#
.	.	.	16dd
.	.	.	16cc#
=137	=137	=137	=137
1AA]	1d]	1f#]	16dd
.	.	.	16ee#
.	.	.	16ff#
.	.	.	16ee#
.	.	.	16ff#
.	.	.	16gg#
.	.	.	16aa
.	.	.	16gg#
.	.	.	16aa
.	.	.	16ccc#
.	.	.	16ddd
.	.	.	16ccc#
.	.	.	16ddd
.	.	.	16aa
.	.	.	16ff#
.	.	.	16dd
=138	=138	=138	=138
8AA	8c#	8g	1ee
8AA	4g	4cc#	.
8AA	.	.	.
8AA	4g	4cc#	.
8AA	.	.	.
8AA	4g	4cc#	.
8AA	.	.	.
8AA	8g	8cc#	.
=139	=139	=139	=139
4D	4f#	4dd	[1dd
4d	8r	8r	.
.	8b	8dd	.
2r	8a#	8cc#	.
.	8b	8dd	.
.	8f#	8a	.
.	8a	8cc	.
=140	=140	=140	=140
4G	8f#	8a#	4.dd]
.	8g	8b	.
4GG	2r	8r	.
.	.	8b	8gg
4r	.	8a#	8ff#
.	.	8b	8gg
4AA	4A	8g	8ee
.	.	8e	8cc#
=141	=141	=141	=141
4D	4A	8g	8ee
.	.	8f#	8dd
4d	8r	8r	2dd
.	8b	8dd	.
2r	8a#	8cc#	.
.	8b	8dd	.
.	8f#	8a	[4dd
.	8a	8cc	.
=142	=142	=142	=142
4G	8f#	8a#	4.dd]
.	8g	8b	.
4GG	2r	8r	.
.	.	8b	8gg
4r	.	8a#	8ff#
.	.	8b	8gg
4AA	4A	8g	8ee
.	.	8e	8cc#
=143	=143	=143	=143
4D	4A	4f#	8dd
.	.	.	16cc#
.	.	.	16r
2r	2r	2r	8ee
.	.	.	16dd
.	.	.	16r
.	.	.	8ff#
.	.	.	16ee
.	.	.	16r
4AA	8.c#	4g	12gg
.	.	.	12ee
.	.	.	12cc#
.	16e	.	.
=144	=144	=144	=144
4D	4d	4f#	8dd
.	.	.	16cc#
.	.	.	16r
2r	2r	2r	8ee
.	.	.	16dd
.	.	.	16r
.	.	.	8ff#
.	.	.	16ee
.	.	.	16r
4AA	8.c#	8.g	12gg
.	.	.	12ee
.	.	.	12cc#
.	16e	16e	.
=145	=145	=145	=145
12FF#	4d	[1d	12aa
12AA	.	.	12ff#
12D	.	.	12dd
12GG	4D	.	12bb
12BB	.	.	12gg
12D	.	.	12dd
12FF#	4D	.	12aa
12AA	.	.	12ff#
12D	.	.	12dd
12GG	4D	.	12bb
12BB	.	.	12gg
12D	.	.	12dd
=146	=146	=146	=146
12FF#	2D	2.d]	12aa
12AA	.	.	12ff#
12D	.	.	12dd
12GG	.	.	12bb
12BB	.	.	12gg
12E	.	.	12ee
12AA	2r	.	12aa
12D	.	.	12ff#
12F#	.	.	12dd
12AA	.	8.c#	12gg
12E	.	.	12ee
12G	.	.	12cc#
.	.	16e	.
=147	=147	=147	=147
1BB	2r	8f#	[1dd
.	.	8f#	.
.	.	8e	.
.	.	8f#	.
.	8r	4g	.
.	8d	.	.
.	8c#	4g	.
.	8d	.	.
=148	=148	=148	=148
1BB-	4D	8r	1dd_
.	.	8g	.
.	4.r	8f#	.
.	.	8g	.
.	.	4g#	.
.	8f	.	.
.	8e	4g#	.
.	8f	.	.
=149	=149	=149	=149
1AA	8f#	8r	1dd]
.	8f#	8a	.
.	8e#	8g#	.
.	8f#	8a	.
.	8g	8b	.
.	8f#	8a	.
.	8e	8g	.
.	8d	8f#	.
=150	=150	=150	=150
8r	1c#	1g	1e
8AA	.	.	.
8GG#	.	.	.
8AA	.	.	.
4BB-	.	.	.
4AA	.	.	.
=151	=151	=151	=151
[1DD	8d	8f#	[3..d
.	8F#	8A	.
.	8E#	8G#	.
.	8F#	8A	.
.	2G	2B-	.
.	.	.	24d]
.	.	.	8c#
.	.	.	8b-
.	.	.	8c#
=152	=152	=152	=152
1DD_	8F#	8A	[3..d
.	8F#	8A	.
.	8E#	8G#	.
.	8F#	8A	.
.	2G	2B-	.
.	.	.	24d]
.	.	.	8c#
.	.	.	8b-
.	.	.	8c#
=153	=153	=153	=153
4DD]	4F#	4A	4d
4r	4r	4r	4r
4DD	4F#	4A	4d
4DD	4F#	4A	4d
=154	=154	=154	=154
4DD	4F#	4A	4d
2.r	2.r	2.r	2.r
==	==	==	==
*-	*-	*-	*-
!!!RWG1: This file contains only pitch and duration data.
!!!RWG2: Transposing instruments are not transposed.
!!!RWG3: Spines may have incompatible meters.
!!!RWG4: Durations of rests and tied notes may be interpreted.
!!!RWG: Key is interpreted using the Humdrum key tool.
!!!GTL: 6 Quartetti ("Prussian")
!!!OPT: The Frog
!!!AFT: stage1
!!!END: 1997/04/15
!!!KEY: 2143378000
!!!EMD: Converted from MuseData to Humdrum Dec 16, 2000, by Andreas Kornstaedt using muse2kern.
!!!EMD: Manual editing by Craig Sapp, Nov 2001
